public/flags/ky.svg

<svg width="51" height="51" viewBox="0 0 51 51" fill="none" xmlns="http://www.w3.org/2000/svg">
<g clip-path="url(#clip0_1_2246)">
<path d="M49.7475 41.8327H1.47185C0.995776 41.8327 0.609741 41.4467 0.609741 40.9706V9.93617C0.609741 9.4601 0.995776 9.07407 1.47185 9.07407H49.7476C50.2237 9.07407 50.6097 9.4601 50.6097 9.93617V40.9706C50.6096 41.4468 50.2236 41.8327 49.7475 41.8327Z" fill="#FF4B55"/>
<path d="M34.7282 28.0244C34.7282 28.0244 33.0108 27.7381 31.7386 26.6831C31.3634 26.3719 30.8187 26.1341 30.2883 25.9583C30.7147 25.9394 31.1671 25.9513 31.5945 26.0377C33.3652 26.3957 35.0821 25.5362 35.0821 25.5362C35.0821 25.5362 33.3498 25.711 31.8453 25.0272C31.4384 24.8422 30.9106 24.7551 30.3955 24.7184C30.766 24.6118 31.1592 24.5284 31.5473 24.5069C33.3511 24.4069 34.7959 23.1424 34.7959 23.1424C34.7959 23.1424 33.1636 23.7482 31.5353 23.4657C31.0611 23.3834 30.479 23.445 29.9373 23.5539C30.2936 23.3301 30.686 23.1209 31.0931 22.9862C32.8082 22.4188 33.8726 20.8208 33.8726 20.8208C33.8726 20.8208 32.4551 21.8318 30.8095 21.9843C30.3209 22.0295 29.7643 22.2489 29.2621 22.5016C29.5518 22.1839 29.8826 21.8694 30.2488 21.6265C31.754 20.6276 32.3603 18.8058 32.3603 18.8058C32.3603 18.8058 31.2591 20.1543 29.7115 20.7346C29.2896 20.8928 28.8524 21.2096 28.4597 21.551C28.6474 21.2098 28.868 20.8685 29.1302 20.5753C30.3342 19.2285 30.4604 17.3127 30.4604 17.3127C30.4604 17.3127 29.7355 18.8957 28.3849 19.8482C27.9912 20.1259 27.6232 20.5818 27.3172 21.0425C27.4107 20.6318 27.5399 20.2058 27.7326 19.8219C28.543 18.2073 28.1646 16.325 28.1646 16.325C28.1646 16.325 27.8783 18.0424 26.8233 19.3146C26.5121 19.6899 26.2743 20.2345 26.0985 20.7652C26.0796 20.3387 26.0915 19.8863 26.1779 19.4589C26.5359 17.6882 25.6765 15.9713 25.6765 15.9713C25.6765 15.9713 25.8513 17.7036 25.1673 19.2081C24.9823 19.6151 24.8952 20.1428 24.8585 20.6579C24.7519 20.2874 24.6685 19.8943 24.6471 19.5061C24.5471 17.7023 23.2825 16.2575 23.2825 16.2575C23.2825 16.2575 23.8884 17.8898 23.6058 19.5181C23.5235 19.9923 23.5851 20.5744 23.694 21.1162C23.4702 20.7599 23.261 20.3675 23.1264 19.9603C22.5589 18.2452 20.9609 17.1808 20.9609 17.1808C20.9609 17.1808 21.972 18.5983 22.1244 20.2439C22.1696 20.7325 22.3891 21.2893 22.6418 21.7914C22.3241 21.5017 22.0097 21.1709 21.7666 20.8046C20.7677 19.2994 18.9459 18.6932 18.9459 18.6932C18.9459 18.6932 20.2944 19.7944 20.8747 21.342C21.0329 21.7639 21.3497 22.2012 21.6911 22.5938C21.3499 22.4061 21.0086 22.1855 20.7154 21.9234C19.3686 20.7193 17.4528 20.5931 17.4528 20.5931C17.4528 20.5931 19.0358 21.318 19.9883 22.6687C20.2658 23.0623 20.7218 23.4304 21.1823 23.7364C20.7717 23.6429 20.3457 23.5137 19.9619 23.321C18.3474 22.5106 16.465 22.889 16.465 22.889C16.465 22.889 18.1824 23.1753 19.4546 24.2303C19.8299 24.5415 20.3745 24.7793 20.9052 24.9551C20.4787 24.974 20.0264 24.9621 19.5989 24.8757C17.8282 24.5177 16.1113 25.3772 16.1113 25.3772C16.1113 25.3772 17.8436 25.2023 19.3481 25.8863C19.7551 26.0713 20.2828 26.1584 20.7979 26.1951C20.4274 26.3017 20.0343 26.3851 19.6461 26.4065C17.8423 26.5065 16.3976 27.7711 16.3976 27.7711C16.3976 27.7711 18.0298 27.1652 19.6581 27.4478C20.1323 27.5301 20.7144 27.4685 21.2562 27.3596C20.8999 27.5834 20.5075 27.7926 20.1003 27.9272C18.3853 28.4947 17.3208 30.0927 17.3208 30.0927C17.3208 30.0927 18.7383 29.0816 20.3839 28.9292C20.8726 28.884 21.4293 28.6645 21.9314 28.4118C21.6417 28.7295 21.3109 29.0439 20.9446 29.287C19.4394 30.2859 18.8331 32.1077 18.8331 32.1077C18.8331 32.1077 19.9344 30.7592 21.4819 30.1789C21.9037 30.0207 22.341 29.7039 22.7336 29.3625C22.546 29.7036 22.3253 30.045 22.0634 30.3381C20.8594 31.6849 20.7331 33.6007 20.7331 33.6007C20.7331 33.6007 21.458 32.0177 22.8087 31.0652C23.2024 30.7875 23.5704 30.3316 23.8765 29.8711C23.7829 30.2818 23.6537 30.7077 23.461 31.0916C22.6506 32.7061 23.029 34.5885 23.029 34.5885C23.029 34.5885 23.3153 32.8711 24.3703 31.5989C24.6815 31.2236 24.9193 30.679 25.0951 30.1483C25.114 30.575 25.1021 31.0272 25.0157 31.4547C24.6577 33.2254 25.5172 34.9422 25.5172 34.9422C25.5172 34.9422 25.3424 33.2099 26.0264 31.7055C26.2113 31.2985 26.2984 30.7707 26.3351 30.2557C26.4417 30.6262 26.5251 31.0193 26.5466 31.4075C26.6466 33.2113 27.9111 34.656 27.9111 34.656C27.9111 34.656 27.3053 33.0237 27.5878 31.3955C27.6701 30.9213 27.6085 30.3392 27.4996 29.7975C27.7234 30.1538 27.9326 30.5461 28.0673 30.9533C28.6347 32.6683 30.2327 33.7328 30.2327 33.7328C30.2327 33.7328 29.2217 32.3153 29.0692 30.6696C29.024 30.181 28.8046 29.6242 28.5518 29.1221C28.8695 29.4118 29.184 29.7426 29.427 30.1089C30.426 31.6141 32.2477 32.2204 32.2477 32.2204C32.2477 32.2204 30.8992 31.1191 30.3189 29.5716C30.1607 29.1498 29.8439 28.7125 29.5025 28.3199C29.8436 28.5075 30.1849 28.7282 30.4781 28.9901C31.8249 30.1941 33.7407 30.3204 33.7407 30.3204C33.7407 30.3204 32.1577 29.5955 31.2052 28.2448C30.9275 27.8511 30.4717 27.483 30.0109 27.1771C30.4217 27.2706 30.8475 27.3998 31.2314 27.5925C32.8459 28.4028 34.7282 28.0244 34.7282 28.0244ZM25.6077 29.8308C23.1904 29.8308 21.2309 27.8712 21.2309 25.4539C21.2309 23.0366 23.1904 21.0771 25.6077 21.0771C28.025 21.0771 29.9845 23.0366 29.9845 25.4539C29.9845 27.8712 28.025 29.8308 25.6077 29.8308Z" fill="#FFE15A"/>
<path d="M24.2206 23.6826C24.314 23.6098 24.4069 23.5366 24.5012 23.4716C23.8811 23.1896 23.3229 23.0541 22.9313 22.9935C22.869 23.0612 22.8127 23.134 22.7556 23.2063C23.1402 23.281 23.6569 23.4235 24.2206 23.6826Z" fill="#FFE15A"/>
<path d="M23.1198 22.8003C23.5406 22.8479 24.1497 22.9732 24.8256 23.2639C24.9389 23.1963 25.0516 23.1366 25.1645 23.0788C24.4347 22.7792 23.7759 22.6676 23.3225 22.6331C23.2543 22.6884 23.1836 22.7404 23.1198 22.8003Z" fill="#FFE15A"/>
<path d="M25.3107 24.829C25.2234 24.7466 25.135 24.6686 25.0459 24.5948C24.2264 25.3747 23.5095 26.5121 23.1859 28.1624C23.3036 28.2677 23.4204 28.3741 23.551 28.4637C23.7887 26.7853 24.4857 25.6268 25.3107 24.829Z" fill="#FFE15A"/>
<path d="M24.9931 24.1041C25.086 24.0294 25.1788 23.9544 25.2729 23.8876C25.1583 23.8145 25.044 23.7502 24.9302 23.6876C24.8326 23.7544 24.7349 23.8191 24.6385 23.8942C24.7565 23.9591 24.8745 24.0282 24.9931 24.1041Z" fill="#FFE15A"/>
<path d="M27.2574 23.8928C27.96 24.5099 28.6022 25.3788 29.0591 26.5835C29.1764 26.2258 29.2557 25.8508 29.2557 25.4539C29.2557 24.7004 29.0267 24.0005 28.6352 23.4193C28.2729 23.4913 27.7864 23.6321 27.2574 23.8928Z" fill="#FFE15A"/>
<path d="M25.3373 24.3386C25.4288 24.4066 25.5184 24.4833 25.6085 24.5588C25.6984 24.4832 25.7881 24.4066 25.8797 24.3386C25.7896 24.2636 25.6998 24.1898 25.6085 24.1224C25.5172 24.1899 25.4274 24.2636 25.3373 24.3386Z" fill="#FFE15A"/>
<path d="M25.6085 23.2825C25.4939 23.3406 25.3793 23.4061 25.264 23.4743C25.3787 23.5345 25.4931 23.5992 25.6085 23.67C25.7238 23.5993 25.8384 23.5346 25.9529 23.4743C25.8377 23.406 25.723 23.3406 25.6085 23.2825Z" fill="#FFE15A"/>
<path d="M22.7888 27.7411C23.1746 26.1654 23.9019 25.0859 24.7159 24.3434C24.6021 24.263 24.4888 24.1893 24.3751 24.1211C23.5918 24.8099 22.883 25.8052 22.4463 27.2392C22.547 27.4171 22.6607 27.5836 22.7888 27.7411Z" fill="#FFE15A"/>
<path d="M23.9593 23.8928C23.4303 23.632 22.9438 23.4914 22.5814 23.4192C22.1899 24.0004 21.9609 24.7003 21.9609 25.4538C21.9609 25.8507 22.0402 26.2257 22.1575 26.5834C22.6145 25.3787 23.2566 24.5099 23.9593 23.8928Z" fill="#FFE15A"/>
<path d="M25.6087 22.8732C26.3846 22.5526 27.1005 22.4387 27.6095 22.4086C27.0346 22.0301 26.3484 21.8066 25.6087 21.8066C24.8689 21.8066 24.1827 22.0302 23.6078 22.4086C24.1169 22.4387 24.8327 22.5525 25.6087 22.8732Z" fill="#FFE15A"/>
<path d="M25.6082 25.1375C24.8808 25.9437 24.2804 27.1011 24.0856 28.7587C24.5502 28.9733 25.0628 29.1013 25.6082 29.1013C26.1537 29.1013 26.6662 28.9733 27.1309 28.7587C26.9361 27.1012 26.3357 25.9437 25.6082 25.1375Z" fill="#FFE15A"/>
<path d="M26.842 24.1211C26.7285 24.1895 26.6151 24.263 26.5012 24.3434C27.3151 25.0858 28.0425 26.1654 28.4284 27.7411C28.5564 27.5835 28.6702 27.4171 28.7708 27.2392C28.3342 25.8053 27.6253 24.8099 26.842 24.1211Z" fill="#FFE15A"/>
<path d="M28.0306 28.1624C27.7069 26.5121 26.99 25.3748 26.1706 24.5948C26.0813 24.6686 25.9931 24.7466 25.9058 24.829C26.7308 25.6268 27.4277 26.7853 27.6654 28.4636C27.7961 28.3741 27.9129 28.2677 28.0306 28.1624Z" fill="#FFE15A"/>
<path d="M26.0525 23.0787C26.1654 23.1364 26.2782 23.1963 26.3914 23.2638C27.0672 22.9731 27.6764 22.8478 28.0972 22.8002C28.0333 22.7403 27.9626 22.6883 27.8945 22.6329C27.4411 22.6676 26.7823 22.7792 26.0525 23.0787Z" fill="#FFE15A"/>
<path d="M26.2238 24.1041C26.3424 24.0282 26.4604 23.9592 26.5783 23.8942C26.4821 23.8191 26.3843 23.7544 26.2867 23.6876C26.1729 23.7503 26.0587 23.8145 25.944 23.8876C26.038 23.9544 26.1309 24.0295 26.2238 24.1041Z" fill="#FFE15A"/>
<path d="M26.996 23.6826C27.5597 23.4235 28.0764 23.281 28.4608 23.2064C28.4037 23.1341 28.3475 23.0612 28.2851 22.9936C27.8935 23.0542 27.3353 23.1896 26.7152 23.4717C26.8097 23.5365 26.9027 23.6098 26.996 23.6826Z" fill="#FFE15A"/>
</g>
<defs>
<clipPath id="clip0_1_2246">
<rect width="50" height="50" fill="white" transform="translate(0.609375 0.453369)"/>
</clipPath>
</defs>
</svg>

<svg xmlns="http://www.w3.org/2000/svg" width="51" height="51" fill="none"><g clip-path="url(#a)"><path fill="#FF4B55" d="M49.748 41.833H1.471a.86.86 0 0 1-.862-.862V9.936c0-.476.386-.862.862-.862h48.276c.476 0 .862.386.862.862v31.035a.86.86 0 0 1-.862.862"/><path fill="#FFE15A" d="M34.728 28.024s-1.717-.286-2.99-1.34c-.375-.312-.92-.55-1.45-.726a5.5 5.5 0 0 1 1.306.08c1.771.358 3.488-.502 3.488-.502s-1.732.175-3.237-.509c-.407-.185-.934-.272-1.45-.309.371-.106.764-.19 1.152-.211 1.804-.1 3.249-1.365 3.249-1.365s-1.632.606-3.26.324c-.475-.083-1.057-.021-1.599.088a5.4 5.4 0 0 1 1.156-.568c1.715-.567 2.78-2.165 2.78-2.165s-1.418 1.01-3.063 1.163c-.49.045-1.046.265-1.548.518.29-.318.62-.633.987-.875 1.505-1 2.111-2.821 2.111-2.821s-1.1 1.348-2.648 1.929c-.422.158-.86.475-1.252.816a5.3 5.3 0 0 1 .67-.976c1.204-1.346 1.33-3.262 1.33-3.262s-.725 1.583-2.075 2.535c-.394.278-.762.734-1.068 1.195.094-.411.223-.837.416-1.221.81-1.615.432-3.497.432-3.497s-.287 1.717-1.342 2.99c-.31.375-.549.92-.724 1.45a5.5 5.5 0 0 1 .079-1.306c.358-1.77-.502-3.488-.502-3.488s.175 1.733-.509 3.237c-.185.407-.272.935-.309 1.45a5.3 5.3 0 0 1-.21-1.152c-.1-1.804-1.366-3.248-1.366-3.248s.606 1.632.324 3.26c-.083.474-.02 1.056.088 1.598a5.4 5.4 0 0 1-.568-1.156c-.567-1.715-2.165-2.78-2.165-2.78s1.011 1.418 1.163 3.064c.046.489.265 1.045.518 1.547a5.5 5.5 0 0 1-.875-.986c-1-1.506-2.821-2.112-2.821-2.112s1.348 1.101 1.929 2.649c.158.422.475.86.816 1.252a5.3 5.3 0 0 1-.976-.67c-1.346-1.205-3.262-1.33-3.262-1.33s1.583.724 2.535 2.075c.278.393.734.761 1.194 1.067a5.4 5.4 0 0 1-1.22-.415c-1.615-.81-3.497-.432-3.497-.432s1.717.286 2.99 1.341c.375.311.92.55 1.45.725a5.5 5.5 0 0 1-1.306-.08c-1.77-.357-3.488.502-3.488.502s1.733-.175 3.237.51c.407.184.935.271 1.45.308a5.3 5.3 0 0 1-1.152.212c-1.804.1-3.248 1.364-3.248 1.364s1.632-.606 3.26-.323c.474.082 1.056.02 1.598-.088a5.4 5.4 0 0 1-1.156.567c-1.715.568-2.78 2.166-2.78 2.166s1.418-1.011 3.064-1.164c.489-.045 1.045-.264 1.547-.517-.29.318-.62.632-.986.875-1.506.999-2.112 2.82-2.112 2.82s1.101-1.348 2.649-1.928c.422-.158.859-.475 1.252-.816a5.3 5.3 0 0 1-.67.975c-1.205 1.347-1.33 3.263-1.33 3.263s.724-1.583 2.075-2.536c.393-.277.761-.733 1.067-1.194-.093.41-.222.837-.415 1.22-.81 1.615-.432 3.498-.432 3.498s.286-1.718 1.341-2.99c.311-.375.55-.92.725-1.45.019.426.007.878-.08 1.306-.357 1.77.502 3.487.502 3.487s-.175-1.732.51-3.236c.184-.407.271-.935.308-1.45.107.37.19.763.212 1.151.1 1.804 1.364 3.249 1.364 3.249s-.606-1.632-.323-3.26c.082-.475.02-1.057-.088-1.599.223.357.433.75.567 1.156.568 1.715 2.166 2.78 2.166 2.78s-1.011-1.418-1.164-3.063c-.045-.489-.264-1.046-.517-1.548.317.29.632.62.875.987.999 1.505 2.82 2.111 2.82 2.111s-1.348-1.1-1.928-2.648c-.158-.422-.475-.86-.816-1.252.34.188.682.408.975.67 1.347 1.204 3.263 1.33 3.263 1.33s-1.583-.724-2.536-2.075c-.277-.394-.733-.762-1.194-1.068.41.094.837.223 1.22.416 1.615.81 3.497.431 3.497.431m-9.12 1.807a4.377 4.377 0 1 1 0-8.754 4.377 4.377 0 0 1 0 8.754"/><path fill="#FFE15A" d="M24.22 23.683q.14-.111.281-.211a6 6 0 0 0-1.57-.479q-.091.104-.175.213c.384.075.9.218 1.465.477M23.12 22.8c.42.048 1.03.173 1.706.464.113-.068.226-.127.338-.185a6.2 6.2 0 0 0-1.841-.446c-.069.055-.14.107-.203.167M25.31 24.829a6 6 0 0 0-.264-.234c-.82.78-1.537 1.917-1.86 3.567.118.106.234.212.365.302.238-1.679.935-2.837 1.76-3.635M24.993 24.104c.093-.075.186-.15.28-.216a6 6 0 0 0-.343-.2c-.097.066-.195.131-.291.206q.176.097.354.21M27.257 23.893c.703.617 1.345 1.486 1.802 2.69.117-.357.197-.732.197-1.13a3.63 3.63 0 0 0-.62-2.034 5.7 5.7 0 0 0-1.379.474M25.337 24.339q.137.104.271.22c.09-.076.18-.152.272-.22a6 6 0 0 0-.271-.217 6 6 0 0 0-.272.217M25.609 23.283a6 6 0 0 0-.345.191q.173.09.345.196.173-.105.344-.196a6 6 0 0 0-.344-.192M22.789 27.741c.386-1.576 1.113-2.655 1.927-3.398a5 5 0 0 0-.34-.222c-.784.689-1.493 1.684-1.93 3.118q.151.267.343.502M23.96 23.893a5.7 5.7 0 0 0-1.379-.474 3.63 3.63 0 0 0-.62 2.035c0 .397.08.772.197 1.13.456-1.205 1.099-2.074 1.801-2.691M25.609 22.873a6.3 6.3 0 0 1 2-.464 3.63 3.63 0 0 0-4.001 0 6.3 6.3 0 0 1 2 .464M25.608 25.138c-.727.806-1.328 1.963-1.522 3.62.464.215.977.343 1.522.343.546 0 1.058-.128 1.523-.342-.195-1.658-.795-2.815-1.523-3.622M26.842 24.121a6 6 0 0 0-.34.222c.813.743 1.54 1.822 1.926 3.398q.192-.235.343-.502c-.437-1.434-1.146-2.43-1.929-3.118M28.03 28.162c-.323-1.65-1.04-2.787-1.86-3.567q-.133.111-.264.234c.825.798 1.522 1.956 1.76 3.635.13-.09.247-.196.365-.302M26.053 23.079q.168.084.338.185a6.1 6.1 0 0 1 1.706-.464c-.064-.06-.134-.112-.203-.167a6.2 6.2 0 0 0-1.841.446M26.224 24.104q.177-.113.354-.21c-.096-.075-.194-.14-.291-.206a6 6 0 0 0-.343.2c.094.066.187.141.28.216M26.996 23.683a6.5 6.5 0 0 1 1.465-.477q-.084-.11-.176-.212c-.392.06-.95.196-1.57.478.095.064.188.138.281.21"/></g><defs><clipPath id="a"><path fill="#fff" d="M.61.453h50v50h-50z"/></clipPath></defs></svg>
